X: 133
T: Flowery Fields
N: This tune has "1770" at top-right corner.
B: 204 Favourite Country Dances
N: Published by Straight & Skillern, London ca.1775
F: http://imslp.org/wiki/204_Favourite_Country_Dances_(Various) p.67 #133
Z: 2014 John Chambers <jc:trillian.mit.edu>
M: 6/8
L: 1/8
K: G
% - - - - - - - - - - - - - - - - - - - - - - - - -
c |\
BdB cAF | G2g gab | afd gab | agf edc |\
BdB cAF | G2g bag | faf ge^c | ddd d2 :|
|: g |\
ecc cag | fdd d2b | gee ec'b | agf edc |\
BdB cAF | G2g bgd | egB cAF | GGG HG2 :|
% - - - - - - - - - - - - - - - - - - - - - - - - -
%%begintext align
%% Figure down on your own sides and turn at
%% bottom .| figure up and turn at top .|. Gallop
%% down 2 Cu. up again and cast off .|: Right
%% and Left at top :|:
%%endtext

%%sep 1 1 500
%%sep 1 1 500
